logo/envoy-icon.svg

<?xml version="1.0" encoding="UTF-8"?>
<svg width="256px" height="191px" viewBox="0 0 256 191" version="1.1" xmlns="http://www.w3.org/2000/svg" xmlns:xlink="http://www.w3.org/1999/xlink" preserveAspectRatio="xMidYMid">
    <title>envoy</title>
    <g>
        <path d="M63.8336201,92.173719 L64.1737287,107.591975 L80.3855719,117.681864 L80.0454633,102.263607 L63.8336201,92.173719 Z M103.399587,156.227505 L103.059478,141.149357 L88.8882868,132.306534 C88.6615477,132.193164 88.4348087,131.966425 88.3214391,131.853055 L88.6615477,147.044573 L103.399587,156.227505 L103.399587,156.227505 Z M52.7234059,176.520651 L15.6515687,153.620006 L14.7446124,115.074365 L32.8837377,107.251867 L32.5436291,91.8336104 L3.52102868,104.304259 C1.25363802,105.324585 -0.106796368,107.365236 0.0065731644,109.745997 L1.14026849,156.000766 C1.14026849,158.381526 2.61407242,160.762286 4.9948326,162.122721 L49.549059,189.671517 C51.5897105,190.918582 54.0838403,191.258691 56.2378614,190.691843 C56.4646005,190.578473 56.6913395,190.578473 56.9180786,190.465104 L84.240136,178.674672 L69.3887272,169.49174 L52.7234059,176.520651 L52.7234059,176.520651 Z" fill="#B31AAB"></path>
        <path d="M172.668371,91.2667627 C172.555002,88.5458939 170.967828,85.7116556 168.24696,84.1244821 L114.169693,50.68047 L112.46915,51.3606872 L112.809258,67.5725304 L155.549572,94.101001 L156.569898,137.408163 L172.895111,147.498051 L173.802067,147.157942 L172.668371,91.2667627 Z M107.934368,167.451089 L57.8250348,136.274467 L56.57797,84.1244821 L79.4786156,74.2613328 L79.0251375,56.2355771 L43.4271042,71.540464 C40.8196049,72.6741593 39.2324315,75.0549195 39.345801,77.8891578 L40.8196049,139.108705 C40.8196049,141.942944 42.5201479,144.663813 45.2410167,146.250986 L104.079804,182.755976 C106.460564,184.22978 109.408172,184.683258 111.902302,183.889671 C112.129041,183.776301 112.35578,183.662932 112.582519,183.662932 L147.386966,168.698154 L130.154797,158.041417 L107.934368,167.451089 L107.934368,167.451089 Z" fill="#D163CE"></path>
        <path d="M249.192806,48.4130793 L173.688697,1.70483185 C170.854459,0.00428885965 167.566743,-0.449189271 164.732504,0.45776699 C164.505765,0.571136523 164.165657,0.684506056 163.938917,0.797875589 L90.3620907,32.5413447 C87.4144829,33.7884096 85.6005704,36.5092784 85.7139399,39.7969948 L87.5278524,118.248711 C87.641222,121.423058 89.568504,124.597405 92.6294814,126.411318 L168.020221,173.119565 C170.741089,174.820108 174.142175,175.273586 176.976414,174.36663 C177.203153,174.253261 177.543261,174.139891 177.77,174.026522 L251.346827,142.283052 C254.294435,141.035988 256.108348,138.201749 255.994978,135.027402 L254.181066,56.5756857 C254.181066,53.4013388 252.253783,50.3403614 249.192806,48.4130793 Z M172.555002,155.547288 L107.027412,114.960995 L105.326869,46.7125363 L169.267286,19.1637399 L234.794875,59.7500326 L236.382049,127.885122 L172.555002,155.547288 L172.555002,155.547288 Z" fill="#E13EAF"></path>
    </g>
</svg>

<svg viewBox="0 0 256 191" xmlns="http://www.w3.org/2000/svg"><path fill="#B31AAB" d="M63.83 92.17l.34 15.41 16.21 10.08 -.35-15.42 -16.22-10.09Zm39.56 64.05l-.35-15.08 -14.18-8.85c-.23-.12-.46-.35-.57-.46l.34 15.19 14.73 9.18v0Zm-50.68 20.29L15.63 153.6l-.91-38.55 18.13-7.83 -.35-15.42 -29.03 12.47c-2.27 1.02-3.63 3.06-3.52 5.44l1.13 46.25c0 2.38 1.47 4.76 3.85 6.12l44.55 27.54c2.04 1.24 4.53 1.58 6.68 1.02 .22-.12.45-.12.68-.23l27.32-11.8 -14.86-9.19 -16.67 7.02v0Z"/><path fill="#D163CE" d="M172.66 91.26c-.12-2.73-1.71-5.56-4.43-7.15l-54.08-33.45 -1.71.68 .34 16.21 42.74 26.52 1.02 43.3 16.32 10.08 .9-.35 -1.14-55.9Zm-64.74 76.18l-50.11-31.18 -1.25-52.15 22.9-9.87L79 56.21l-35.6 15.3c-2.61 1.13-4.2 3.51-4.09 6.34l1.47 61.21c0 2.83 1.7 5.55 4.42 7.14l58.83 36.5c2.38 1.47 5.32 1.92 7.82 1.13 .22-.12.45-.23.68-.23l34.8-14.97 -17.24-10.66 -22.23 9.4v0Z"/><path fill="#E13EAF" d="M249.19 48.41L173.68 1.7c-2.84-1.71-6.13-2.16-8.96-1.25 -.23.11-.57.22-.8.34L90.34 32.53c-2.95 1.24-4.77 3.96-4.65 7.25l1.81 78.45c.11 3.17 2.04 6.34 5.1 8.16l75.39 46.7c2.72 1.7 6.12 2.15 8.95 1.24 .22-.12.56-.23.79-.35l73.57-31.75c2.94-1.25 4.76-4.09 4.64-7.26l-1.82-78.46c0-3.18-1.93-6.24-4.99-8.17Zm-76.64 107.13l-65.53-40.59 -1.71-68.25 63.94-27.55 65.52 40.58 1.58 68.13 -63.83 27.66v0Z"/></svg>
